X:1
T:[ID 8-10b]
T:[ID 8-10b]
T:Bezeichnung standardisiert: Schwabisch oder Walzer Schwabisch oder Walzer In dieser Quelle auch als: Schwabisch
T:Urheber unbekannt Datum in der hier transkribierten schriftlichen Quelle: 1792
C:Urheber unbekannt
C:Datum in der hier transkribierten schriftlichen Quelle: 1792
L:1/8
M:3/8
K:D
V:1 treble 
V:1
 f2 e | dd/c/d | egf | e/d/e/f/e | f2 e | dd/c/d | egf | e3 :: ab/c'/d' | ab/c'/d' | gfe | %11
 d/c/d/e/d | ab/c'/d' | ab/c'/d' | gfe | d3 :| %16

